src/lib/packages/icons/src/assets/line/user-shield.svg

<svg width="24" height="24" viewBox="0 0 24 24" fill="none" xmlns="http://www.w3.org/2000/svg">
<path d="M10.009 10.75C7.66503 10.75 5.75903 8.843 5.75903 6.5C5.75903 4.157 7.66503 2.25 10.009 2.25C12.353 2.25 14.259 4.157 14.259 6.5C14.259 8.843 12.353 10.75 10.009 10.75ZM10.009 3.75C8.49203 3.75 7.25903 4.983 7.25903 6.5C7.25903 8.017 8.49203 9.25 10.009 9.25C11.526 9.25 12.759 8.017 12.759 6.5C12.759 4.983 11.525 3.75 10.009 3.75ZM12 21.75H6C3.582 21.75 2.25 20.425 2.25 18.02C2.25 15.358 3.756 12.25 8 12.25H12C12.421 12.25 12.787 12.276 13.119 12.33C13.528 12.395 13.807 12.78 13.74 13.189C13.675 13.598 13.282 13.8761 12.881 13.8101C12.629 13.7691 12.341 13.75 12 13.75H8C4.057 13.75 3.75 17.019 3.75 18.02C3.75 19.583 4.423 20.25 6 20.25H12C12.414 20.25 12.75 20.586 12.75 21C12.75 21.414 12.414 21.75 12 21.75ZM18.429 22.75C18.346 22.75 18.263 22.736 18.184 22.709C16.283 22.052 14.25 20.353 14.25 17.556V15.334C14.25 15.001 14.4699 14.708 14.7889 14.614C16.5329 14.103 17.347 13.717 18.093 13.333C18.31 13.222 18.567 13.222 18.783 13.335C19.52 13.72 20.326 14.103 22.046 14.549C22.376 14.635 22.608 14.933 22.608 15.275V17.5551C22.608 20.3521 20.576 22.051 18.674 22.708C18.5949 22.736 18.512 22.75 18.429 22.75ZM15.75 15.891V17.556C15.75 19.846 17.647 20.872 18.429 21.198C19.21 20.873 21.108 19.845 21.108 17.556V15.85C19.942 15.522 19.181 15.2129 18.434 14.8409C17.687 15.2089 16.926 15.525 15.75 15.891Z" fill="currentColor"/>
</svg>

<svg xmlns="http://www.w3.org/2000/svg" width="24" height="24" fill="none"><path fill="currentColor" d="M10.009 10.75a4.255 4.255 0 0 1-4.25-4.25 4.255 4.255 0 0 1 4.25-4.25 4.255 4.255 0 0 1 4.25 4.25 4.255 4.255 0 0 1-4.25 4.25Zm0-7a2.752 2.752 0 0 0-2.75 2.75 2.752 2.752 0 0 0 2.75 2.75 2.752 2.752 0 0 0 2.75-2.75 2.753 2.753 0 0 0-2.75-2.75Zm1.991 18H6c-2.418 0-3.75-1.325-3.75-3.73 0-2.662 1.506-5.77 5.75-5.77h4c.421 0 .787.026 1.119.08.409.065.688.45.621.859a.753.753 0 0 1-.859.621 5.514 5.514 0 0 0-.881-.06H8c-3.943 0-4.25 3.269-4.25 4.27 0 1.563.673 2.23 2.25 2.23h6a.75.75 0 0 1 0 1.5Zm6.429 1a.759.759 0 0 1-.245-.041c-1.901-.657-3.934-2.356-3.934-5.153v-2.222c0-.333.22-.626.539-.72 1.744-.511 2.558-.897 3.304-1.281a.75.75 0 0 1 .69.002c.737.385 1.543.768 3.263 1.214.33.086.562.384.562.726v2.28c0 2.797-2.032 4.496-3.934 5.153a.734.734 0 0 1-.245.042Zm-2.679-6.859v1.665c0 2.29 1.897 3.316 2.679 3.642.781-.325 2.679-1.353 2.679-3.642V15.85c-1.166-.328-1.927-.637-2.674-1.01-.747.369-1.508.685-2.684 1.051Z"/></svg>
